src/assets/icons/cab-itinerary.svg

<svg width="30" height="30" viewBox="0 0 30 30" fill="none" xmlns="http://www.w3.org/2000/svg">
<rect width="30" height="30" rx="15" fill="#C3E1FF"/>
<rect x="3" y="3" width="24" height="24" rx="12" fill="white" stroke="#379AFF"/>
<path d="M15.0009 19.4995C13.8157 19.4995 12.6374 19.4995 11.4522 19.4995C11.3213 19.4995 11.2868 19.5372 11.2937 19.6802C11.3006 20.1244 11.2937 20.5686 11.2937 21.0203C11.2937 21.5623 10.9974 21.9312 10.5082 21.9839C10.3221 22.0065 10.1292 22.0065 9.94315 21.9764C9.52972 21.9086 9.23342 21.5397 9.22653 21.0805C9.22653 20.6439 9.22653 20.1997 9.22653 19.763C9.22653 19.5146 9.22653 19.5146 8.99225 19.5146C8.85444 19.5146 8.70973 19.5146 8.57192 19.4694C8.23428 19.349 8 19.0253 8 18.6413C8 17.3991 8 16.1645 8 14.9223C8 14.2975 8.50301 13.7328 9.07493 13.6726C9.19897 13.6576 9.2472 13.6124 9.29544 13.4844C9.70887 12.4078 10.1292 11.3313 10.5495 10.2472C10.7769 9.66753 11.1766 9.37392 11.7554 9.37392C12.2446 9.37392 12.727 9.37392 13.2162 9.37392C13.3196 9.37392 13.354 9.34381 13.3471 9.23088C13.3402 9.11043 13.3402 8.98998 13.3471 8.86952C13.3953 8.36512 13.7123 8.02635 14.1878 8.01129C14.7252 7.99624 15.2627 7.99624 15.8071 8.01129C16.317 8.02635 16.6477 8.41029 16.6546 8.96739C16.6546 9.09537 16.5995 9.26853 16.6822 9.34381C16.758 9.41156 16.9096 9.36639 17.0336 9.36639C17.4539 9.36639 17.8811 9.36639 18.3015 9.36639C18.832 9.37392 19.2179 9.65247 19.4246 10.187C19.8587 11.2861 20.2791 12.3853 20.7063 13.4844C20.7476 13.5898 20.7959 13.6425 20.9061 13.65C21.4987 13.7102 21.9879 14.2673 21.9948 14.9148C22.0017 16.1494 22.0017 17.3841 21.9948 18.6187C21.9948 19.0855 21.6641 19.4468 21.2369 19.4845C21.1335 19.492 21.0233 19.4995 20.9268 19.4845C20.789 19.4694 20.7683 19.5297 20.7683 19.6652C20.7752 20.1093 20.7683 20.5535 20.7683 21.0052C20.7683 21.5473 20.4651 21.9161 19.9759 21.9613C19.7898 21.9764 19.5969 21.9839 19.4109 21.9538C19.0043 21.886 18.7011 21.5247 18.7011 21.073C18.7011 20.5987 18.7011 20.1244 18.7011 19.6501C18.7011 19.5221 18.6736 19.4845 18.5564 19.492C17.3712 19.492 16.1792 19.492 14.994 19.492L15.0009 19.4995Z" fill="#0E286A"/>
<path d="M19.8714 13.6321H10.135C10.2659 13.3008 10.39 12.9771 10.514 12.6534C10.7689 11.9833 11.0308 11.3133 11.2857 10.6433C11.396 10.3497 11.5062 10.2744 11.8025 10.2744C13.9248 10.2744 16.0472 10.2744 18.1695 10.2744C18.4313 10.2744 18.5898 10.3873 18.6931 10.6584C19.0584 11.6069 19.4442 12.5555 19.8232 13.5041C19.837 13.5417 19.8508 13.5869 19.8714 13.6396V13.6321Z" fill="white"/>
<path d="M19.7266 16.3352C19.5336 16.3352 19.3407 16.3352 19.1478 16.3352C18.8859 16.3352 18.7274 16.1695 18.7137 15.8835C18.7068 15.7329 18.7068 15.5899 18.7137 15.4393C18.7274 15.1758 18.8928 14.9951 19.1409 14.9951C19.5405 14.9951 19.9333 14.9951 20.333 14.9951C20.581 14.9951 20.7464 15.1607 20.7671 15.4318C20.7808 15.6049 20.7877 15.7856 20.7602 15.9587C20.7257 16.1846 20.581 16.3201 20.3743 16.3276C20.3605 16.3276 20.3536 16.3276 20.3398 16.3276C20.1331 16.3276 19.9333 16.3276 19.7266 16.3276V16.3352Z" fill="white"/>
<path d="M10.2667 16.3407C10.06 16.3407 9.86017 16.3407 9.65345 16.3407C9.42606 16.3407 9.26758 16.1902 9.24691 15.9417C9.23313 15.7686 9.23313 15.5879 9.24691 15.4148C9.26758 15.1663 9.42606 15.0082 9.65345 15.0082C10.06 15.0082 10.4665 15.0007 10.8731 15.0082C11.1143 15.0082 11.2727 15.1964 11.2865 15.4675C11.2934 15.6105 11.2934 15.7535 11.2865 15.8966C11.2727 16.1827 11.1143 16.3483 10.8524 16.3483C10.6526 16.3483 10.4528 16.3483 10.2598 16.3483L10.2667 16.3407Z" fill="white"/>
</svg>

<svg xmlns="http://www.w3.org/2000/svg" width="30" height="30" fill="none" viewBox="0 0 30 30">
  <rect width="30" height="30" fill="#C3E1FF" rx="15"/>
  <rect width="24" height="24" x="3" y="3" fill="#fff" stroke="#379AFF" rx="12"/>
  <path fill="#0E286A" d="M15 19.5h-3.548c-.13 0-.165.037-.158.18.007.444 0 .889 0 1.34 0 .542-.297.911-.786.964a2.03 2.03 0 0 1-.565-.008c-.413-.067-.71-.436-.716-.895v-1.318c0-.248 0-.248-.235-.248-.138 0-.282 0-.42-.046A.87.87 0 0 1 8 18.641v-3.719c0-.625.503-1.19 1.075-1.25.124-.014.172-.06.22-.188.414-1.076.834-2.153 1.255-3.237.227-.58.627-.873 1.205-.873h1.461c.104 0 .138-.03.131-.143a3.157 3.157 0 0 1 0-.361c.048-.505.365-.844.84-.859a29.043 29.043 0 0 1 1.62 0c.51.015.84.4.848.956 0 .128-.056.302.027.377.076.068.228.022.352.022h1.268c.53.008.916.286 1.123.821.434 1.1.854 2.198 1.281 3.297.042.106.09.159.2.166.593.06 1.082.617 1.089 1.265.007 1.234.007 2.47 0 3.704 0 .466-.33.828-.758.866a1.428 1.428 0 0 1-.31 0c-.138-.016-.159.045-.159.18.007.444 0 .889 0 1.34 0 .542-.303.911-.792.956a2.363 2.363 0 0 1-.565-.007c-.407-.068-.71-.43-.71-.881V19.65c0-.128-.027-.165-.145-.158h-3.562l.007.008Z"/>
  <path fill="#fff" d="M19.871 13.632h-9.736c.13-.331.255-.655.379-.979.255-.67.517-1.34.772-2.01.11-.293.22-.369.517-.369h6.366c.262 0 .42.113.524.384.365.949.751 1.898 1.13 2.846.014.038.028.083.048.136v-.008ZM19.727 16.335h-.58c-.261 0-.42-.166-.433-.452a4.769 4.769 0 0 1 0-.444c.013-.263.179-.444.427-.444h1.192c.248 0 .413.166.434.437.014.173.02.354-.007.527-.034.226-.179.361-.386.369h-.647v.007ZM10.267 16.34h-.614c-.227 0-.385-.15-.406-.398a3.363 3.363 0 0 1 0-.527c.02-.249.18-.407.406-.407.407 0 .813-.007 1.22 0 .241 0 .4.188.414.46a4.45 4.45 0 0 1 0 .429c-.014.286-.173.451-.435.451h-.592l.007-.007Z"/>
</svg>
